X: 55
T: Wuzhi shan wu tiao xi
L: 1/4
M: 2/4
K: C
dcd [I:setbarnb 1]| 
eG2 | 
dcd | 
g3 | 
ced | 
c2G | 
e/ d/ c/ e/d | 
d3 | 
EAc | 
G2E | 
GAc | 
A3 | 
EAc | 
G2E | 
Gz/ G/ | 
GG | 
c2 |]

@@@ Tune index: 8723
